X: 1
T: Chambre 417
O: Quebec
R: slow air
Z: 2008 John Chambers <jc@trillian.mit.edu>
S: printed page from Debby Knight
N: as played by Les chauffeurs \`a pieds
M: 4/4
L: 1/8
K: Amix=g
[| A2 cA FF FE-| EA AB cA Bc | A2 cA FF FE-| EA AB cA AA |
|  A2 cA FF FE-| EA AB cA Bc | A2 cA FF FE-| EA AB cA Ac |]
[| cB cd ef g2 | ef gf ec Ac | cB cd ef gf | ec dB cA Ac |
|  cB cd ef g2 | ef ga gf ec | cB cd ef gf | ec dB dA A2 |]
